src/icons/close.svg

<svg
      class="fill-current"
      width="24"
      height="24"
      viewBox="0 0 24 24"
      fill="none"
      xmlns="http://www.w3.org/2000/svg"
    >
      <path
        fill-rule="evenodd"
        clip-rule="evenodd"
        d="M6.04289 16.5418C5.65237 16.9323 5.65237 17.5655 6.04289 17.956C6.43342 18.3465 7.06658 18.3465 7.45711 17.956L11.9987 13.4144L16.5408 17.9565C16.9313 18.347 17.5645 18.347 17.955 17.9565C18.3455 17.566 18.3455 16.9328 17.955 16.5423L13.4129 12.0002L17.955 7.45808C18.3455 7.06756 18.3455 6.43439 17.955 6.04387C17.5645 5.65335 16.9313 5.65335 16.5408 6.04387L11.9987 10.586L7.45711 6.04439C7.06658 5.65386 6.43342 5.65386 6.04289 6.04439C5.65237 6.43491 5.65237 7.06808 6.04289 7.4586L10.5845 12.0002L6.04289 16.5418Z"
        fill=""
      />
    </svg>

<?xml version="1.0" encoding="UTF-8" standalone="no"?><!DOCTYPE svg PUBLIC "-//W3C//DTD SVG 1.1//EN" "http://www.w3.org/Graphics/SVG/1.1/DTD/svg11.dtd"><svg width="100%" height="100%" viewBox="0 0 24 24" version="1.1" xmlns="http://www.w3.org/2000/svg" xmlns:xlink="http://www.w3.org/1999/xlink" xml:space="preserve" xmlns:serif="http://www.serif.com/" style="fill-rule:evenodd;clip-rule:evenodd;stroke-linejoin:round;stroke-miterlimit:2;"><path d="M6.043,16.542c-0.391,0.391 -0.391,1.024 0,1.414c0.391,0.39 1.024,0.39 1.414,0l4.542,-4.542l4.542,4.542c0.39,0.391 1.024,0.391 1.414,0c0.391,-0.39 0.391,-1.024 0,-1.414l-4.542,-4.542l4.542,-4.542c0.391,-0.391 0.391,-1.024 0,-1.414c-0.39,-0.391 -1.024,-0.391 -1.414,0l-4.542,4.542l-4.542,-4.542c-0.391,-0.391 -1.024,-0.391 -1.414,0c-0.391,0.391 -0.391,1.024 0,1.414l4.542,4.542l-4.542,4.542Z" style="fill:#fff;"/></svg>
